img/svg/header-logo.svg

<svg width="132" height="14" viewBox="0 0 132 14" fill="none" xmlns="http://www.w3.org/2000/svg">
<path d="M10.6787 9.87109C10.6787 10.3574 10.5879 10.7764 10.4063 11.1279C10.2305 11.4795 9.99317 11.7783 9.69434 12.0244C9.39551 12.2705 9.04981 12.4727 8.65723 12.6309C8.27051 12.7832 7.86621 12.9033 7.44434 12.9912C7.02246 13.0791 6.59766 13.1377 6.16992 13.167C5.74805 13.1963 5.35254 13.2109 4.9834 13.2109C4.62012 13.2109 4.24219 13.1963 3.84961 13.167C3.46289 13.1436 3.07617 13.0996 2.68945 13.0352C2.30273 12.9707 1.92188 12.8857 1.54688 12.7803C1.17188 12.6689 0.817383 12.5312 0.483398 12.3672L0.46582 1.04687C0.793945 0.912108 1.14258 0.791991 1.51172 0.686522C1.88086 0.575194 2.25586 0.484374 2.63672 0.414061C3.02344 0.337889 3.40723 0.282225 3.78809 0.247069C4.16895 0.206053 4.53809 0.185546 4.89551 0.185546C5.31152 0.185546 5.73047 0.211913 6.15234 0.264647C6.58008 0.317381 6.99024 0.405272 7.38281 0.528319C7.77539 0.651366 8.1416 0.812499 8.48145 1.01172C8.82129 1.20508 9.11719 1.44531 9.36914 1.73242C9.62695 2.01953 9.82617 2.35351 9.9668 2.73437C10.1133 3.11523 10.1865 3.55469 10.1865 4.05273C10.1865 4.38086 10.1396 4.68848 10.0459 4.97559C9.95215 5.26269 9.81738 5.52051 9.6416 5.74902C9.46582 5.97754 9.25195 6.17383 9 6.33789C8.74805 6.49609 8.46387 6.61328 8.14746 6.68945C8.52832 6.78906 8.87402 6.93555 9.18457 7.12891C9.50098 7.32227 9.76758 7.55664 9.98438 7.83203C10.207 8.10742 10.377 8.41797 10.4941 8.76367C10.6172 9.10937 10.6787 9.47852 10.6787 9.87109ZM6.21387 4.86133C6.21387 4.69141 6.17871 4.54785 6.1084 4.43066C6.03809 4.30762 5.9502 4.20801 5.84473 4.13183C5.74512 4.05566 5.63379 4 5.51074 3.96484C5.39356 3.92969 5.28809 3.91211 5.19434 3.91211C5.07715 3.91211 4.96289 3.92969 4.85156 3.96484C4.74023 4 4.63184 4.04101 4.52637 4.08789L4.47363 6.03906C4.6084 6.03906 4.77539 6.02734 4.97461 6.00391C5.17383 5.98047 5.36426 5.93066 5.5459 5.85449C5.7334 5.77246 5.8916 5.65527 6.02051 5.50293C6.14941 5.34473 6.21387 5.13086 6.21387 4.86133ZM4.96582 7.72656C4.7959 7.72656 4.63184 7.74414 4.47363 7.7793L4.43848 9.7832C4.52637 9.80078 4.61133 9.81836 4.69336 9.83594C4.78125 9.84766 4.86621 9.85352 4.94824 9.85352C5.07129 9.85352 5.20606 9.8418 5.35254 9.81836C5.49902 9.78906 5.63672 9.73633 5.76563 9.66016C5.89453 9.57812 6 9.46973 6.08203 9.33496C6.16992 9.20019 6.21387 9.02148 6.21387 8.79883C6.21387 8.57617 6.16992 8.39453 6.08203 8.25391C6 8.11328 5.89746 8.00488 5.77441 7.92871C5.65137 7.84668 5.5166 7.79394 5.37012 7.77051C5.22363 7.74121 5.08887 7.72656 4.96582 7.72656ZM20.7861 5.89844C20.7861 6.4082 20.751 6.91797 20.6807 7.42773C19.6787 7.49219 18.6826 7.59766 17.6924 7.74414C16.7022 7.88477 15.7119 8.02539 14.7217 8.16602C14.874 8.58789 15.1113 8.9248 15.4336 9.17676C15.7617 9.42871 16.1514 9.55469 16.6025 9.55469C16.8369 9.55469 17.0918 9.51074 17.3672 9.42285C17.6484 9.33496 17.9268 9.22656 18.2022 9.09766C18.4775 8.96289 18.7412 8.81934 18.9932 8.66699C19.2451 8.51465 19.4619 8.37695 19.6436 8.25391L19.2217 12.2441C18.9932 12.4199 18.7441 12.5693 18.4746 12.6924C18.2109 12.8154 17.9355 12.915 17.6484 12.9912C17.3613 13.0674 17.0713 13.123 16.7783 13.1582C16.4854 13.1934 16.1982 13.2109 15.917 13.2109C15.3369 13.2109 14.8066 13.1318 14.3262 12.9736C13.8457 12.8154 13.4092 12.5957 13.0166 12.3145C12.6299 12.0273 12.29 11.6904 11.9971 11.3037C11.7041 10.917 11.4609 10.4951 11.2676 10.0381C11.0742 9.58105 10.9277 9.09766 10.8281 8.58789C10.7285 8.07812 10.6787 7.5625 10.6787 7.04101C10.6787 6.49609 10.7285 5.95117 10.8281 5.40625C10.9277 4.86133 11.0771 4.33691 11.2764 3.83301C11.4814 3.3291 11.7363 2.86328 12.041 2.43555C12.3516 2.00195 12.7119 1.62402 13.1221 1.30176C13.5322 0.979491 13.9951 0.727538 14.5107 0.545897C15.0322 0.364256 15.6064 0.273436 16.2334 0.273436C16.7549 0.273436 17.2295 0.346678 17.6572 0.493163C18.0908 0.633788 18.4746 0.833007 18.8086 1.09082C19.1484 1.34277 19.4414 1.64453 19.6875 1.99609C19.9395 2.34766 20.1445 2.73437 20.3027 3.15625C20.4668 3.57226 20.5869 4.01465 20.6631 4.4834C20.7451 4.94629 20.7861 5.41797 20.7861 5.89844ZM17.2705 5.44141C17.2705 5.27734 17.2529 5.11035 17.2178 4.94043C17.1826 4.76465 17.124 4.60644 17.042 4.46582C16.9658 4.32519 16.8633 4.21094 16.7344 4.12305C16.6055 4.0293 16.4443 3.98242 16.251 3.98242C16.0166 3.98242 15.8086 4.04687 15.627 4.17578C15.4512 4.29883 15.2988 4.45703 15.1699 4.65039C15.041 4.83789 14.9355 5.04297 14.8535 5.26562C14.7715 5.48828 14.71 5.69336 14.6689 5.88086L17.2705 5.63476V5.44141ZM30.375 8.5C30.375 9.30273 30.2344 9.99707 29.9531 10.583C29.6777 11.1631 29.2969 11.6436 28.8105 12.0244C28.3301 12.3994 27.7647 12.6777 27.1143 12.8594C26.4697 13.0352 25.7754 13.123 25.0313 13.123C24.7441 13.123 24.4277 13.085 24.082 13.0088C23.7422 12.9326 23.3965 12.8389 23.0449 12.7275C22.6934 12.6104 22.3535 12.4873 22.0254 12.3584C21.7031 12.2236 21.416 12.0977 21.1641 11.9805L21.5508 8.53516C22.0488 8.83398 22.5996 9.0625 23.2031 9.2207C23.8125 9.37305 24.4102 9.44922 24.9961 9.44922C25.1074 9.44922 25.2422 9.44629 25.4004 9.44043C25.5586 9.42871 25.708 9.40234 25.8486 9.36133C25.9951 9.31445 26.1182 9.24707 26.2178 9.15918C26.3174 9.07129 26.3672 8.94531 26.3672 8.78125C26.3672 8.66992 26.332 8.57617 26.2617 8.5C26.1914 8.41797 26.1006 8.35352 25.9893 8.30664C25.8779 8.25391 25.752 8.21582 25.6113 8.19238C25.4707 8.16309 25.333 8.14258 25.1982 8.13086C25.0635 8.11914 24.9375 8.11328 24.8203 8.11328C24.7031 8.11328 24.6094 8.11328 24.5391 8.11328C24.0352 8.11328 23.5752 8.03418 23.1592 7.87598C22.749 7.71777 22.3945 7.49512 22.0957 7.20801C21.8027 6.91504 21.5742 6.56348 21.4102 6.15332C21.2461 5.7373 21.1641 5.27734 21.1641 4.77344C21.1641 4.08203 21.3018 3.46387 21.5772 2.91894C21.8584 2.36816 22.2305 1.90234 22.6934 1.52148C23.1621 1.13476 23.6982 0.838866 24.3018 0.633788C24.9053 0.42871 25.5293 0.326171 26.1738 0.326171C26.4609 0.326171 26.7568 0.337889 27.0615 0.361327C27.3662 0.378905 27.668 0.414061 27.9668 0.466796C28.2715 0.51953 28.5674 0.586913 28.8545 0.668944C29.1416 0.750975 29.4141 0.853514 29.6719 0.976561L29.3379 4.54492C28.9395 4.41016 28.5205 4.29883 28.0811 4.21094C27.6475 4.11719 27.2227 4.07031 26.8066 4.07031C26.7305 4.07031 26.6309 4.07324 26.5078 4.0791C26.3906 4.0791 26.2647 4.08789 26.1299 4.10547C26.001 4.11719 25.8691 4.13769 25.7344 4.16699C25.5996 4.19629 25.4795 4.2373 25.374 4.29004C25.2686 4.33691 25.1836 4.40137 25.1191 4.4834C25.0547 4.56543 25.0254 4.66211 25.0313 4.77344C25.0371 4.90234 25.084 5.00195 25.1719 5.07226C25.2656 5.14258 25.3828 5.19531 25.5234 5.23047C25.6699 5.25976 25.8281 5.27441 25.998 5.27441C26.1738 5.27441 26.3467 5.27148 26.5166 5.26562C26.6865 5.25391 26.8447 5.24512 26.9912 5.23926C27.1377 5.22754 27.2578 5.22461 27.3516 5.23047C27.8203 5.25976 28.2422 5.35937 28.6172 5.5293C28.9922 5.69922 29.3086 5.9248 29.5664 6.20605C29.8301 6.4873 30.0293 6.82422 30.1641 7.2168C30.3047 7.60352 30.375 8.03125 30.375 8.5ZM40.043 0.607421L39.9551 4.33398L37.3359 4.43945L37.0195 12.5957L33.3106 12.7891L32.9766 4.63281L30.3574 4.77344L30.4629 0.624999L40.043 0.607421ZM100.846 4.89648C100.846 5.46484 100.761 5.96875 100.591 6.4082C100.421 6.84766 100.187 7.23437 99.8877 7.56836C99.5947 7.89648 99.249 8.1748 98.8506 8.40332C98.4522 8.62598 98.0244 8.81055 97.5674 8.95703C97.1162 9.09766 96.6475 9.20312 96.1611 9.27344C95.6748 9.33789 95.1973 9.37305 94.7285 9.37891V13.123H90.6328C90.6328 12.4551 90.6328 11.8047 90.6328 11.1719C90.6387 10.5391 90.6416 9.91211 90.6416 9.29102C90.6475 8.66406 90.6504 8.03418 90.6504 7.40137C90.6563 6.76855 90.6621 6.11523 90.668 5.44141C90.6797 4.72656 90.6826 4.01172 90.6768 3.29687C90.6709 2.58203 90.6856 1.86133 90.7207 1.13476C91.4707 0.912108 92.2207 0.745116 92.9707 0.633788C93.7207 0.52246 94.4941 0.466796 95.291 0.466796C95.7422 0.466796 96.1934 0.504881 96.6445 0.581053C97.0957 0.651366 97.5264 0.765624 97.9365 0.923827C98.3525 1.08203 98.7363 1.28125 99.0879 1.52148C99.4453 1.75586 99.7529 2.03711 100.011 2.36523C100.269 2.69336 100.471 3.06836 100.617 3.49023C100.77 3.91211 100.846 4.38086 100.846 4.89648ZM96.9434 5.19531C96.9434 4.81445 96.8262 4.51855 96.5918 4.30762C96.3633 4.09082 96.0645 3.98242 95.6953 3.98242C95.5723 3.98242 95.4434 3.99414 95.3086 4.01758C95.1797 4.03516 95.0566 4.05859 94.9395 4.08789L94.834 6.6543C94.916 6.66601 94.9951 6.67187 95.0713 6.67187C95.1475 6.67187 95.2266 6.67187 95.3086 6.67187C95.5195 6.67187 95.7217 6.63672 95.915 6.56641C96.1143 6.49609 96.29 6.39648 96.4424 6.26758C96.5947 6.13281 96.7149 5.97754 96.8027 5.80176C96.8965 5.62012 96.9434 5.41797 96.9434 5.19531ZM109.055 8.3418L108.686 12.2441L101.285 12.8242L101.566 0.273436H106.137L105.486 8.3418H109.055ZM120.551 12.2441L116.191 12.8066L115.664 10.8203H113.66L113.221 12.8066L108.738 12.3672L112.236 0.660155L117.123 0.414061L120.551 12.2441ZM115.348 8.13086L114.68 5.07226L114.029 8.13086H115.348ZM131.643 8.55273C131.643 9.21484 131.634 9.87109 131.616 10.5215C131.605 11.166 131.584 11.8164 131.555 12.4727L126.492 12.3848C126.668 11.3477 126.82 10.3135 126.949 9.28223C127.078 8.24512 127.143 7.19922 127.143 6.14453C127.143 6.06836 127.14 5.94531 127.134 5.77539C127.128 5.60547 127.116 5.41504 127.099 5.2041C127.081 4.9873 127.055 4.76758 127.02 4.54492C126.99 4.31641 126.946 4.1084 126.888 3.9209C126.835 3.7334 126.768 3.58105 126.686 3.46387C126.609 3.34082 126.516 3.2793 126.404 3.2793C126.205 3.2793 126.035 3.33789 125.895 3.45508C125.76 3.57226 125.646 3.72461 125.552 3.91211C125.464 4.09375 125.394 4.29883 125.341 4.52734C125.288 4.75586 125.247 4.98437 125.218 5.21289C125.194 5.44141 125.177 5.6582 125.165 5.86328C125.159 6.0625 125.156 6.22656 125.156 6.35547C125.127 7.39258 125.104 8.42383 125.086 9.44922C125.068 10.4687 125.045 11.5 125.016 12.543L120.533 12.7363C120.65 10.668 120.762 8.61133 120.867 6.56641C120.979 4.52148 121.066 2.46484 121.131 0.396483L125.279 0.185546L125.244 1.5918C125.408 1.39258 125.584 1.20508 125.772 1.0293C125.965 0.853514 126.17 0.7041 126.387 0.581053C126.604 0.452147 126.832 0.352538 127.072 0.282225C127.318 0.206053 127.576 0.167967 127.846 0.167967C128.344 0.167967 128.78 0.249999 129.155 0.414061C129.53 0.578124 129.853 0.80078 130.122 1.08203C130.392 1.36328 130.617 1.69726 130.799 2.08398C130.98 2.46484 131.127 2.87207 131.238 3.30566C131.35 3.73926 131.435 4.19336 131.493 4.66797C131.552 5.13672 131.59 5.59961 131.607 6.05664C131.631 6.51367 131.643 6.95605 131.643 7.38379C131.643 7.81152 131.643 8.20117 131.643 8.55273Z" fill="#333333"/>
<path d="M53.3672 0.607421L53.2793 4.33398L50.6602 4.43945L50.3438 12.5957L46.6348 12.7891L46.3008 4.63281L43.6816 4.77344L43.7871 0.624999L53.3672 0.607421ZM64.5557 6.26758C64.5557 6.80078 64.4941 7.31641 64.3711 7.81445C64.2481 8.30664 64.0693 8.76953 63.835 9.20312C63.6065 9.63672 63.3252 10.0352 62.9912 10.3984C62.6631 10.7559 62.291 11.0635 61.875 11.3213C61.4648 11.5791 61.0166 11.7812 60.5303 11.9277C60.0439 12.0684 59.5283 12.1387 58.9834 12.1387C58.4561 12.1387 57.9522 12.0713 57.4717 11.9365C56.9971 11.8018 56.5518 11.6143 56.1357 11.374C55.7197 11.1279 55.3418 10.835 55.002 10.4951C54.668 10.1494 54.3809 9.76855 54.1406 9.35254C53.9063 8.93066 53.7217 8.47949 53.5869 7.99902C53.458 7.51855 53.3936 7.01758 53.3936 6.49609C53.3936 5.98633 53.4551 5.48828 53.5781 5.00195C53.7012 4.50976 53.877 4.04687 54.1055 3.61328C54.3398 3.17969 54.6211 2.78125 54.9492 2.41797C55.2773 2.05469 55.6436 1.74121 56.0479 1.47754C56.458 1.21387 56.9004 1.00879 57.375 0.862303C57.8496 0.715819 58.3506 0.642577 58.8779 0.642577C59.7275 0.642577 60.501 0.774413 61.1982 1.03808C61.9014 1.30176 62.499 1.67969 62.9912 2.17187C63.4893 2.6582 63.8731 3.25 64.1426 3.94726C64.418 4.63867 64.5557 5.41211 64.5557 6.26758ZM60.6533 6.49609C60.6533 6.24414 60.6152 6.00098 60.5391 5.7666C60.4688 5.52637 60.3633 5.31543 60.2227 5.13379C60.082 4.94629 59.9063 4.79687 59.6953 4.68555C59.4902 4.56836 59.2529 4.50976 58.9834 4.50976C58.708 4.50976 58.4619 4.55957 58.2451 4.65918C58.0283 4.75879 57.8408 4.89648 57.6826 5.07226C57.5303 5.24219 57.4131 5.44434 57.3311 5.67871C57.249 5.90723 57.208 6.15039 57.208 6.4082C57.208 6.6543 57.2432 6.90039 57.3135 7.14648C57.3838 7.39258 57.4893 7.61523 57.6299 7.81445C57.7705 8.01367 57.9434 8.1748 58.1484 8.29785C58.3594 8.4209 58.6025 8.48242 58.8779 8.48242C59.1533 8.48242 59.3994 8.42969 59.6162 8.32422C59.8389 8.21289 60.0264 8.06641 60.1787 7.88477C60.3311 7.69727 60.4482 7.4834 60.5303 7.24316C60.6123 7.00293 60.6533 6.75391 60.6533 6.49609ZM75.6475 0.624999C75.3838 2.6875 75.1582 4.74121 74.9707 6.78613C74.7832 8.82519 74.6045 10.8789 74.4346 12.9473L70.8311 13.2109L70.9893 11.8574C70.8721 11.9922 70.7344 12.1094 70.5762 12.209C70.4238 12.3086 70.2598 12.3906 70.084 12.4551C69.9082 12.5137 69.7266 12.5576 69.5391 12.5869C69.3516 12.6104 69.1729 12.6191 69.0029 12.6133C68.6045 12.6074 68.2295 12.5312 67.8779 12.3848C67.5264 12.2324 67.2041 12.0332 66.9111 11.7871C66.6182 11.5352 66.3545 11.2451 66.1201 10.917C65.8857 10.583 65.6865 10.2344 65.5225 9.87109C65.3643 9.50195 65.2412 9.12695 65.1533 8.74609C65.0713 8.36523 65.0303 7.99609 65.0303 7.63867C65.0303 7.11133 65.0391 6.56641 65.0566 6.00391C65.0801 5.43555 65.1182 4.86719 65.1709 4.29883C65.2236 3.73047 65.291 3.16797 65.3731 2.61133C65.4609 2.05469 65.5693 1.52148 65.6982 1.01172C66.4131 1.04687 67.1309 1.0791 67.8516 1.1084C68.5723 1.13769 69.29 1.14648 70.0049 1.13476C69.8701 1.64453 69.7354 2.15723 69.6006 2.67285C69.4717 3.18262 69.3545 3.69824 69.249 4.21973C69.1436 4.73535 69.0586 5.25391 68.9941 5.77539C68.9297 6.29687 68.8975 6.82422 68.8975 7.35742C68.8975 7.48047 68.9033 7.65625 68.915 7.88477C68.9268 8.11328 68.9561 8.33887 69.0029 8.56152C69.0557 8.78418 69.1318 8.98047 69.2315 9.15039C69.3369 9.31445 69.4834 9.39648 69.6709 9.39648C69.8936 9.39648 70.0928 9.30273 70.2686 9.11523C70.4443 8.92187 70.5996 8.66406 70.7344 8.3418C70.8691 8.01953 70.9834 7.64746 71.0772 7.22559C71.1768 6.80371 71.2588 6.36426 71.3233 5.90723C71.3936 5.44434 71.4492 4.97851 71.4902 4.50976C71.5313 4.04101 71.5606 3.60156 71.5781 3.19141C71.6016 2.77539 71.6162 2.40332 71.6221 2.07519C71.6338 1.74707 71.6397 1.49219 71.6397 1.31055C71.6397 1.19336 71.6367 1.0791 71.6309 0.967772C71.625 0.856444 71.6162 0.742186 71.6045 0.624999C71.9854 0.636717 72.3633 0.645507 72.7383 0.651366C73.1133 0.657225 73.4912 0.660155 73.8721 0.660155C74.165 0.660155 74.458 0.660155 74.751 0.660155C75.0498 0.654296 75.3486 0.642577 75.6475 0.624999ZM86.4756 4.52734C86.4756 4.98437 86.4346 5.40039 86.3525 5.77539C86.2764 6.14453 86.1533 6.48437 85.9834 6.79492C85.8135 7.10547 85.5938 7.39258 85.3242 7.65625C85.0547 7.91992 84.7295 8.17187 84.3486 8.41211L86.4404 12.1387L82.4854 12.9121L81.1318 9.16797L80.042 9.20312L79.8838 12.8594H76.1045C76.1338 11.5234 76.1602 10.1934 76.1836 8.86914C76.2129 7.54492 76.2451 6.21484 76.2803 4.87891C76.292 4.20508 76.3037 3.53711 76.3154 2.875C76.3272 2.21289 76.3506 1.54492 76.3857 0.871092C76.7959 0.718749 77.2002 0.592772 77.5986 0.493163C77.9971 0.393553 78.3955 0.317381 78.794 0.264647C79.1983 0.206053 79.6055 0.167967 80.0156 0.150389C80.4316 0.126952 80.8565 0.115233 81.29 0.115233C81.958 0.115233 82.6025 0.208983 83.2236 0.396483C83.8506 0.578124 84.4043 0.853514 84.8848 1.22266C85.3652 1.5918 85.749 2.05176 86.0361 2.60254C86.3291 3.15332 86.4756 3.79492 86.4756 4.52734ZM82.5381 4.80859C82.5381 4.5625 82.5029 4.33691 82.4326 4.13183C82.3682 3.92676 82.2686 3.75098 82.1338 3.60449C82.0049 3.45215 81.8408 3.33496 81.6416 3.25293C81.4483 3.16504 81.2197 3.12109 80.9561 3.12109C80.8389 3.12109 80.7246 3.12988 80.6133 3.14746C80.502 3.15918 80.3936 3.17969 80.2881 3.20898L80.1475 6.47851H80.3584C80.6104 6.47851 80.8652 6.44629 81.1231 6.38184C81.3867 6.31738 81.6211 6.21777 81.8262 6.08301C82.0371 5.94824 82.207 5.77539 82.3359 5.56445C82.4707 5.35351 82.5381 5.10156 82.5381 4.80859Z" fill="#EC1F46"/>
</svg>

<svg width="132" height="14" fill="none" xmlns="http://www.w3.org/2000/svg"><path d="M10.679 9.871c0 .486-.091.905-.273 1.257-.176.351-.413.65-.712.896a3.926 3.926 0 01-1.037.607 7.451 7.451 0 01-1.213.36 9.385 9.385 0 01-1.274.176 15.247 15.247 0 01-2.32 0 11.163 11.163 0 01-2.303-.387 6.803 6.803 0 01-1.064-.413L.466 1.047a9.94 9.94 0 011.046-.36C1.88.575 2.256.484 2.637.414c.386-.076.77-.132 1.151-.167a10.124 10.124 0 012.364.018c.428.052.838.14 1.23.263.393.123.76.284 1.1.484.34.193.635.433.887.72.258.288.457.622.598 1.002.146.381.22.82.22 1.319 0 .328-.047.635-.141.923a2.561 2.561 0 01-.404.773c-.176.229-.39.425-.642.589a2.84 2.84 0 01-.853.351c.381.1.727.247 1.038.44.316.193.583.428.8.703a3 3 0 01.51.932c.122.345.184.715.184 1.107zm-4.465-5.01a.823.823 0 00-.106-.43.933.933 0 00-.263-.3.994.994 0 00-.334-.166 1.114 1.114 0 00-.317-.053c-.117 0-.231.018-.342.053-.112.035-.22.076-.326.123l-.052 1.951c.134 0 .301-.012.5-.035.2-.024.39-.073.572-.15.187-.082.346-.199.475-.351.128-.158.193-.372.193-.642zM4.966 7.727c-.17 0-.334.017-.492.052l-.036 2.004.255.053c.088.012.173.018.255.018.123 0 .258-.012.405-.036.146-.029.284-.082.413-.158a.988.988 0 00.316-.325c.088-.135.132-.314.132-.536 0-.223-.044-.404-.132-.545a.914.914 0 00-.308-.325 1.007 1.007 0 00-.404-.158 2.073 2.073 0 00-.404-.044zm15.82-1.829c0 .51-.035 1.02-.105 1.53-1.002.064-1.998.17-2.989.316l-2.97.422c.152.422.39.759.712 1.01.328.253.717.379 1.168.379.235 0 .49-.044.765-.132.281-.088.56-.196.835-.325.275-.135.54-.279.791-.431.252-.152.469-.29.65-.413l-.421 3.99a3.83 3.83 0 01-.747.448 4.96 4.96 0 01-.827.3 6.331 6.331 0 01-.87.166c-.293.035-.58.053-.861.053-.58 0-1.11-.08-1.59-.237a4.824 4.824 0 01-1.31-.66 5.051 5.051 0 01-1.02-1.01 5.878 5.878 0 01-.73-1.266 7.304 7.304 0 01-.439-1.45c-.1-.51-.15-1.025-.15-1.547 0-.545.05-1.09.15-1.635.1-.545.25-1.07.448-1.573.205-.504.46-.97.765-1.397.31-.434.67-.812 1.081-1.134.41-.323.873-.574 1.389-.756a5.208 5.208 0 011.722-.273c.522 0 .997.074 1.424.22.434.14.818.34 1.152.598.34.252.632.554.878.905.252.352.457.738.616 1.16.164.416.284.859.36 1.327.082.463.123.935.123 1.415zm-3.516-.457c0-.164-.017-.33-.052-.5a1.532 1.532 0 00-.176-.475.964.964 0 00-.308-.343.8.8 0 00-.483-.14c-.234 0-.442.064-.624.193a1.768 1.768 0 00-.457.474 2.772 2.772 0 00-.316.616 4.723 4.723 0 00-.185.615l2.601-.246V5.44zM30.375 8.5c0 .803-.14 1.497-.422 2.083a3.954 3.954 0 01-1.142 1.441 4.838 4.838 0 01-1.697.835 7.891 7.891 0 01-2.083.264c-.287 0-.603-.038-.949-.114-.34-.076-.686-.17-1.037-.282a20.56 20.56 0 01-1.02-.369c-.322-.134-.609-.26-.86-.378l.386-3.445a6.293 6.293 0 001.652.686 7.376 7.376 0 002.197.22 2.17 2.17 0 00.449-.08 1.02 1.02 0 00.369-.202c.1-.088.15-.214.15-.378a.4.4 0 00-.106-.281.72.72 0 00-.273-.193 1.428 1.428 0 00-.378-.115c-.14-.029-.278-.05-.413-.061a4.376 4.376 0 00-.378-.018h-.28c-.505 0-.965-.079-1.38-.237a3.153 3.153 0 01-1.064-.668 3.097 3.097 0 01-.686-1.055 3.73 3.73 0 01-.246-1.38c0-.691.138-1.31.413-1.854a4.345 4.345 0 011.116-1.398 5.059 5.059 0 011.609-.887 5.779 5.779 0 011.872-.308c.287 0 .583.012.887.035a8.514 8.514 0 011.793.308c.288.082.56.185.818.308l-.334 3.568a10.105 10.105 0 00-1.257-.334 6.02 6.02 0 00-1.951-.106c-.129.012-.26.033-.396.062-.134.03-.255.07-.36.123a.657.657 0 00-.255.193.418.418 0 00-.088.29.384.384 0 00.14.3c.095.07.212.122.352.157.147.03.305.044.475.044.176 0 .349-.003.519-.008.17-.012.328-.02.474-.027a2.63 2.63 0 01.36-.009c.47.03.891.13 1.266.3.375.17.692.395.95.676.263.281.462.618.597 1.01.14.388.211.815.211 1.284zM40.043.607l-.088 3.727-2.62.105-.316 8.157-3.708.193-.334-8.156-2.62.14.106-4.148 9.58-.018zm60.803 4.29c0 .568-.085 1.072-.255 1.511-.17.44-.404.826-.703 1.16a4.14 4.14 0 01-1.037.835 7.005 7.005 0 01-1.284.554c-.45.14-.92.246-1.406.316-.486.065-.964.1-1.433.106v3.744h-4.095v-1.951c.006-.633.009-1.26.009-1.881.005-.627.008-1.257.008-1.89l.018-1.96c.012-.714.015-1.43.009-2.144-.006-.715.009-1.436.044-2.162a15.786 15.786 0 014.57-.668c.451 0 .902.038 1.353.114.452.07.882.185 1.292.343.416.158.8.357 1.152.597.357.235.665.516.923.844.258.328.46.703.606 1.125a4.1 4.1 0 01.229 1.406zm-3.903.298c0-.38-.117-.676-.351-.887-.229-.217-.528-.326-.897-.326-.123 0-.252.012-.386.036a3.431 3.431 0 00-.37.07l-.105 2.566c.082.012.161.018.237.018h.238c.21 0 .413-.035.606-.106.2-.07.375-.17.527-.298.153-.135.273-.29.36-.466.094-.182.141-.384.141-.607zm12.112 3.147l-.369 3.902-7.401.58.281-12.55h4.571l-.651 8.068h3.569zm11.496 3.902l-4.36.563-.527-1.987h-2.004l-.439 1.987-4.483-.44L112.236.66l4.887-.246 3.428 11.83zm-5.203-4.113l-.668-3.059-.651 3.059h1.319zm16.295.422c0 .662-.009 1.318-.027 1.968a72.086 72.086 0 01-.061 1.952l-5.063-.088c.176-1.037.328-2.072.457-3.103.129-1.037.194-2.083.194-3.137a11.796 11.796 0 00-.123-1.6 3.78 3.78 0 00-.132-.624 1.516 1.516 0 00-.202-.457c-.077-.123-.17-.185-.282-.185a.767.767 0 00-.509.176c-.135.117-.249.27-.343.457a2.924 2.924 0 00-.211.615 6.85 6.85 0 00-.123.686c-.024.228-.041.445-.053.65-.006.2-.009.364-.009.492a297.432 297.432 0 00-.07 3.094c-.018 1.02-.041 2.051-.07 3.094l-4.483.193c.117-2.068.229-4.125.334-6.17.112-2.045.199-4.101.264-6.17l4.148-.21-.035 1.406c.164-.2.34-.387.528-.563.193-.175.398-.325.615-.448.217-.129.445-.228.685-.299.246-.076.504-.114.774-.114.498 0 .934.082 1.309.246.375.164.698.387.967.668.27.281.495.615.677 1.002.181.38.328.788.439 1.222.112.433.197.887.255 1.362.059.469.097.932.114 1.389.024.457.036.899.036 1.327v1.169z" fill="#333"/><path d="M53.367.607l-.088 3.727-2.619.105-.316 8.157-3.71.193-.333-8.156-2.62.14.106-4.148 9.58-.018zm11.189 5.66c0 .534-.062 1.05-.185 1.547a5.935 5.935 0 01-.536 1.39c-.229.433-.51.831-.844 1.194a5.488 5.488 0 01-2.46 1.53 5.54 5.54 0 01-1.548.21 5.57 5.57 0 01-1.511-.201 5.858 5.858 0 01-1.336-.563 5.7 5.7 0 01-1.134-.879 5.848 5.848 0 01-.861-1.142 6.26 6.26 0 01-.554-1.354 6.07 6.07 0 01-.009-2.997c.123-.492.299-.955.528-1.389.234-.433.515-.832.843-1.195a5.59 5.59 0 011.099-.94 5.37 5.37 0 011.327-.616c.475-.146.976-.22 1.503-.22.85 0 1.623.132 2.32.396a4.96 4.96 0 011.793 1.134 4.924 4.924 0 011.152 1.775c.275.692.413 1.465.413 2.32zm-3.903.23c0-.253-.038-.496-.114-.73a1.889 1.889 0 00-.316-.633 1.561 1.561 0 00-.528-.448 1.41 1.41 0 00-.712-.176c-.275 0-.521.05-.738.15a1.708 1.708 0 00-.914 1.019 2.141 2.141 0 00-.123.73c0 .245.035.491.105.737.07.247.176.47.317.668.14.2.313.36.518.484.211.123.454.184.73.184.275 0 .521-.052.738-.158.223-.111.41-.258.563-.44.152-.187.27-.4.351-.64.082-.241.123-.49.123-.748zM75.647.624c-.263 2.063-.489 4.116-.676 6.161-.188 2.04-.367 4.093-.536 6.161l-3.604.264.158-1.354a1.847 1.847 0 01-.413.352 2.42 2.42 0 01-.492.246 3.36 3.36 0 01-.545.132 3.385 3.385 0 01-.536.026 3.015 3.015 0 01-1.125-.228 3.92 3.92 0 01-.967-.598 4.892 4.892 0 01-.79-.87 6.406 6.406 0 01-.599-1.046 6.646 6.646 0 01-.369-1.125 5.257 5.257 0 01-.123-1.107c0-.528.01-1.073.027-1.635a33.418 33.418 0 01.316-3.393c.088-.556.196-1.09.325-1.6.715.036 1.433.068 2.154.097.72.03 1.438.038 2.153.027-.135.51-.27 1.022-.404 1.538-.13.51-.246 1.025-.352 1.547a20.06 20.06 0 00-.255 1.555 12.896 12.896 0 00-.097 1.582c0 .123.006.3.018.528.012.228.041.454.088.677.053.222.129.418.228.588a.496.496 0 00.44.246c.223 0 .422-.093.598-.28a2.68 2.68 0 00.465-.774c.135-.322.25-.695.343-1.116.1-.422.182-.862.246-1.319.07-.463.126-.928.167-1.397.041-.469.07-.908.088-1.319.024-.416.038-.788.044-1.116.012-.328.018-.583.018-.764a6.589 6.589 0 00-.035-.686 74.95 74.95 0 002.267.035h.879c.299-.006.598-.017.896-.035zm10.829 3.902c0 .457-.041.873-.123 1.248-.077.37-.2.71-.37 1.02-.17.31-.39.598-.659.861-.27.264-.594.516-.975.756l2.091 3.727-3.955.773-1.353-3.744-1.09.035-.158 3.656h-3.78c.03-1.336.056-2.666.08-3.99.029-1.324.061-2.654.096-3.99l.035-2.004c.012-.662.036-1.33.07-2.004.41-.152.815-.278 1.214-.378.398-.1.796-.176 1.195-.228.404-.059.812-.097 1.222-.115.416-.023.84-.035 1.274-.035.668 0 1.313.094 1.934.281.627.182 1.18.458 1.66.827.481.369.865.829 1.152 1.38.293.55.44 1.192.44 1.924zm-3.938.282c0-.247-.035-.472-.105-.677a1.375 1.375 0 00-.3-.528 1.261 1.261 0 00-.491-.351 1.645 1.645 0 00-.686-.132c-.117 0-.231.009-.343.026-.111.012-.22.033-.325.062l-.14 3.27h.21c.252 0 .507-.033.765-.097.264-.065.498-.164.703-.299.211-.135.381-.308.51-.519.135-.21.202-.462.202-.755z" fill="#EC1F46"/></svg>
